X:1
T:The Green Fields of Amerikay
M:3/4
L:1/4
K:G
 A| B B G| A B G| D F G|A/2-F/2 D d| e d B| A BD/2-E/2| F E E| E2 A|\
 B B G| A- B G| E F G|A/2-F/2 D(2B3.99999962500005/11.9999985000002B3.99999962500005/11.9999985000002c3.99999962500005/11.9999985000002 d3.99999962500005/11.9999985000002|\
 e d B| A BD/2-E/2| F E E| E2 E/2E/2| F G A| B ^c d| e d B|A/2-F/2 DD/2-E/2|\
 G AB/2-c/2| d de/2-d/2| B A B| A2 A| B B G| A B G| E F G|A/2-F/2 D(3B3.99999962500005/11.9999985000002B3.99999962500005/11.9999985000002c3.99999962500005/11.9999985000002B3.99999962500005/11.9999985000002c3.99999962500005/11.9999985000002d3.99999962500005/11.9999985000002|\
 e d B| A BD/2-E/2| F E E| E2||
